X: 30307
T: Old Man Dillon
R: jig
M: 6/8
K: Adorian
G|:EAA AB/c/d|edB cBA|BGG DGG|B/c/dc BAG|
EAA AB/c/d|e2g a2g|edc Bcd|1 ecA BAG:|2 eca ~a3||
|:gef g2a|gef ged|BGG DGG|B/c/dc BAG|
[1 gef g2a|gef ged|edc Bcd|ecA ~a3:|
[2 EAE AB/c/d|e2g a2g|edc Bcd|ecA BAG||

